X: 8
T:Orange in Bloom, Sherborne
M:6/8
L:1/8
A:Sherborne
P:A(AB3)2(AC3)2A
K:G
Q:6/8=40
P:A
|:E>GE D<GA |B<dB  A2B |G>EE  D<GA |B<GG  G3:|
P:B
B>AB/c/ d2B  |A>GA  B>cd|e>dB  A>GA |B>AG  E2D|
E>GE D<GA |B<dB  A2B |G>EE  D<GA |B<GG  G3||
P:C
M:4/4
L:1/8
BABc d2B2 |AGA2  Bcd2|edB2  AGA2 |BAG2  E3D|
M:6/8
E>GE D<GA |B<dB  A2B |G>EE  D<GA |B<GG  G3||
